X:16
T:Bannockburn Road
D:"?" by Old Blind Dogs
R:jig
Z:Transcribed by Lionel Gueganton
L:1/8
M:6/8
K:Ador
|: EEEBEE | cEEdEE | EDEBGG | F2EFGA   | 
   EEEBEE | cEEdFF | FDFdAG |1 F2GE2B :|2 F2GE2A |
|: BEEEGB | cBABEE | EGdBGA | A2GFGA   | 
   BEEEGB | cBGGAA | FDFdAG |1 F2GE2A :|2 F2GE2B |
|: EEEGAB | BABGAB | EDEGAG | F2EFGA   | 
   EEEGAB | BABcBA | FDFdAG |1 F2GE2B :|2 F2GE2A |
|: BEGBAG | GEGBAG | EGdBGA | A2GFGA   | 
   BEGBAG | GEFFFF | FDFdAG |1 F2GE2A :|2 F2GE2B |

